!!!OTL: "Hasenleid" SOBALD DER JAEGER GEHT AUF DIE JAGD
!!!ARE: Europa, Mitteleuropa, Deutschland, Rhein
!!!SCT: Z1288
!!!YEM: Copyright 1995, estate of Helmut Schaffrath.
**kern
*ICvox
*Ivox
*M4/4
*k[f#]
*G:
{4d
=1
4.g
8g
4a
8g
8g
=2
4a
16g
16f#
16g
16a
4b
8r}
{8d
=3
4g
4g
4a
8g
8f#
=4
4.g
8a
4b
8r}
{8d
=5
8.g
16g
8.f#
16f#
4e
4d
=6
8.g
16g
8.f#
16f#
4e
8d}
{8d
=7
8d
8g
8g
8g
4g
8r
8a
=8
8b
8b
8cc
8cc
4dd
8r}
{8b
=9
8cc
8ee
8a
8cc
4.b
8g
=10
4.a
8f#
4g}
==
!!!AGN: Jaeger - Lied
!!!ONB: ESAC (Essen Associative Code) Database: ZUCCAL
!!!AMT: simple quadruple
!!!AIN: vox
!!!EED: Helmut Schaffrath
!!!EEV: 1.0
*-
